X:1
T:Standin In The Need of Prayer
T:Keep your lamps trimmed
T:Copyright 1881 by The Riverside Press
T:Rodeheaver's Plantation Melodies
Z:Rodeheaver's Plantation Melodies
L:1/8
Q:1/4=70
M:2/4
K:Ab
V:1 treble nm="Soprano" snm="S."
V:1
 AA | F2 FF/E/ | FG AA | E2 ED/C/ | EF AA | F2 EF/E/ | FG Ac | B<A GG | F2 :| AB | c3 e | %11
w: Keep your|lamps trimmed and a-|bur- ning. Keep your|lamps trimmed and a-|bur- ning. Keep your|lamps trimmed and a-|bur- ning. For this|work's- * al- most|done.|Bro- thers,|don't grow|
w: |||||||||Prea- chers...||
w: |||||||||||
 c/F/F Ac | B3 c | AF | AB | c3 e | c/F/F Ac | B<A GG | D2!fine! | AA | F2 FF/E/ | FG AA | %22
w: wea- * ry. Bro- thers,|don't grow|wea- ry.|Bro- thers|don't grow|wea- * ry. For this|work's- * al- most|done.|Keep your|lamps trimmed and a-|bur- ning. Keep your|
w: |||||||||||
w: |||||||||||
 E2 EE/C/ | EF AA | F2 FF/E/ | FG Ac | B<A GG | F2 :| AA | FF FF | GA AA | EE EE/C/ | EF AA | %33
w: lamps trimmed and a-|bur- ning. Keep your|lamps trimmed and a-|bur- ning. For this|work's- * al- most|done.|'Tis re-|lig- ion makes us|hap- py. 'Tis re-|lig- ion makes us- *|hap- py. 'Tis re-|
w: ||||||We are|climb- ing Ja- cob's|lad- der... * *|||
w: ||||||Ev- ery|round goes high- er|and/high- er... * *|||
 EE EE | EF Ac | B<A GG | F2 |] %37
w: lig- ion makes us|hap- py. For this|work's- * al- most|done.|
w: ||||
w: ||||

